!!!!SEGMENT: Any1001e-Missa_Vulnerasti_cor_meum-Agnus.krn
!!!id: Any1001e
!!!OTL: Agnus
!!!AGN: Mass; Agnus
!!!voices: 4
!!!COM: Anonymous
!!!OPR: Missa Vulnerasti cor meum
**kern	**kern	**kern	**kern
*part4	*part3	*part2	*part1
*staff4	*staff3	*staff2	*staff1
*I"Bassus	*I"Tenor	*I"Altus	*I"Superius
*I'B	*I'T	*I'A	*I'S
*clefF4	*clefGv2	*clefGv2	*clefG2
*k[b-]	*k[b-]	*k[b-]	*k[b-]
*F:	*F:	*F:	*F:
*M3/1	*M3/1	*M3/1	*M3/1
*met(O)	*met(O)	*met(O)	*met(O)
!!section: Agnus Dei
!!!OMD: Agnus Dei
=1	=1	=1	=1
1.d	0.r	0.r	0.r
4c	.	.	.
4B-y	.	.	.
2c	.	.	.
2d	.	.	.
=2	=2	=2	=2
2G	0.r	1.d	0.r
1B-y	.	.	.
4A	.	4c	.
4G	.	4B-y	.
2A	.	2c	.
2F	.	2d	.
=3	=3	=3	=3
0G	1.g	2G	0.r
.	.	1B-y	.
.	4f	4A	.
.	4e	4G	.
2r	2f	2A	.
[2G	2g	2G	.
=4	=4	=4	=4
2G]	2d	2.B-y	1.dd
2D	1f	.	.
.	.	4c	.
1B-y	.	1d	.
.	4e	.	4cc
.	4d	.	4b-y
2A	2e	2r	2cc
2B-y	2d	2d	2dd
=5	=5	=5	=5
2c	2r	2e	2g
2.G	1d	2.g	1b-y
4A	.	4f	.
2B-y	4c	4e	4a
.	4B-y	4d	4g
1F	2c	[1f	1a
.	[2d	.	.
=6	=6	=6	=6
2BB-y	2d]	2f]	2b-y
2C	2c	2e	1a
2D	2B-y	2d	.
2E-X	2G	2c	1g
1D	1A	1d	.
.	.	.	2f#i
=7	=7	=7	=7
0.r	0G	2r	1g
.	.	2g	.
.	.	2g	2r
.	.	2g	2dd
.	1r	2f	2dd
.	.	2d	2dd
=8	=8	=8	=8
0.r	0.r	2.e	2.cc
.	.	4f	4dd
.	.	2g	2ee
.	.	2a	2.ff
.	.	4d	.
.	.	4e	4ee
.	.	4f	[2dd
.	.	4g	.
=9	=9	=9	=9
1r	1r	1e	2dd]
.	.	.	2cc#i
2r	2r	2d	2dd
2G	2d	2g	2b-y
2G	2d	2g	2b-y
2G	2d	2g	2b-y
=10	=10	=10	=10
1A	2.c	2e	2.a
.	.	2f	.
.	4d	.	4b-y
2A	2e	2e	1cc
2F	1f	1a	.
2A	.	.	2a
2B-y	2d	2g	[2dd
=11	=11	=11	=11
1A	1e	1a	2dd]
.	.	.	2cc#i
2r	0d	2r	0dd
1d	.	2f	.
.	.	1b-y	.
2B-y	.	.	.
=12	=12	=12	=12
2c	1r	2a	1r
2B-y	.	1g	.
1A	1r	.	1r
.	.	2f#i	.
1G	1d	1g	1dd
=13	=13	=13	=13
2r	0g	2r	2b-y
1G	.	1b-y	1dd
4F	.	4a	2ee
4E	.	4g	.
2.D	[1f	1a	2.ff
4E	.	.	4ee
=14	=14	=14	=14
4F	2f]	2.a	2dd
4G	.	.	.
2A	2e	.	2.cc
.	.	4g	.
2B-y	2d	2f	.
.	.	.	4b-y
2G	2B-y	2e	1b-y
1F	1c	1f	.
.	.	.	2a
=15	=15	=15	=15
2r	1B-y	2d	1b-y
2G	.	1.g	.
2G	2r	.	2r
2G	2d	.	2b-y
1B-y	2d	2f	2b-y
.	2d	[2g	2b-y
=16	=16	=16	=16
2r	1c	2g]	2cc
2F	.	4f	2.a
.	.	4e	.
2G	2B-y	2d	.
.	.	.	4g
2C	2c	2e	1g
1D	1A	[1dl	.
.	.	.	2f#i
=17	=17	=17	=17
00Gl	00Gl	00d]	00gl
==	==	==	==
*-	*-	*-	*-
!!!system-decoration: [*]
!!!RDF**kern: i = editorial accidental
!!!RDF**kern: l = terminal long
!!!ENC: David Burn
!!!END: 2025/2/13
!!!EED: Benjamin Ory
!!!EEV: 2025/2/13
!!!YEC: Copyright 2025 David Burn, All Rights Reserved
!!!ONB: Translated from MusicXML on 2025/2/13
!!!verovio: header encoded
!!!header-left: Edited by @{ENC} (2025)\n
!!!header-right:
!!!header-center: